-----BEGIN PGP PUBLIC KEY BLOCK-----

mQINBGdRgdUBEACm0zhfi7UakL9+OJjzjxRq9ynlOrY7bSTkgMls8Xd9Qt82F1UB
heHR86Ow4QBnyCbdqOFRBGFG08F6ovSrzjikMzowpy3qSVfjbptR/h/Lqf8XCkRo
rOrW3AYTBVg4Y8hmCyK92mtNrMJKYiZEcGgTjTnQCNy/1pwBp/JQs5e6/rc+GMcK
ruBuNXJzsQP+nFO9GlmKOhVyE4tzwEFmrQha9KvpCdgSzxz+mtjLGPHISLKIoPb/
vWYyiHYNEhn26bSnyySSRc4gyrFBVehsEAhgQEDHwjzqyWmJLJonKHI66ezwADYI
45MJ3UUtezoLdHiTDKeB8h6jgIOg/hQSz3PwTHuxKXxxRLz1bpKfb+g4uRtMfPHJ
/EYQAeNdY/ThBoEmBIP/yJSUZOzVrRzeIF1hAwc3dJ3JzmaoyZ1YBZhGW1vYCwHK
poKZFgDotvVqze/V2PWEoiARUfikPHDmNa6thNJQrGcRMbiacHbS96qZXZ7sNihr
MjcYoR7FjucYC/2SH53DKm6E9EJjHIT9fAIYtkjBPcP1NCC8OL/4/qJ1NDMV8x+j
liwHjQFVB/pBUFgw5DwLu8Fzy9OKujB8Bl/W4jnAVCvJbJZkRPkSpgKLg0TcxveA
dQ59R9Po0r36WelDg1Md4hswJmt1xHMHyLtpW0SSiKaiTx2vDVJOMXJvAwARAQAB
tC9OaWNob2xhcyBXaWxzb24gPG5pY2hvbGFzQG5pY2hvbGFzd2lsc29uLm1lLnVr
PokCVAQTAQgAPgULCQgHAgIiAgYVCgkICwIEFgIDAQIeBwIXgAIZARYhBKlVNiBK
O7SJcVIxKCqY53628kyoBQJnU165AhsBAAoJECqY53628kyoc5wP/1fBfx1s6Nvh
FZ8jiS5gzaFbRzBV07OUgt4DXRMnM8JbWMna6NhDuOGbbVOgGwr9R1zdU7Gkh/RE
Ia0YrxYfMWn5rWk3ZgziAJpNw8CvDtLvNDLUcEv3lX8xRXPY/9wf7z6l6n0RAVgJ
kOGeK5GyORKWM6LCGdXmgGwCk60jZ4vrOn+Ywg4TYHeoqrc6rYfOsna6qOxBuq1s
9VbUxwFrxpmaQmUNMVwU5HWo07bZzhPKPvdor3D7DbgPExs17z6xBo22VkBO/gK9
V3EpoI70uJEuC9sLEZPnNCmhLSeV135uwsPgbdeeLgf1+WOnoKKGANy56F87DbdA
m5L5/lGQH6rsvLWNYp8LZxxKIps/cz19WRlKY8VZv0v+TzMK2Lpb2bhejHP+uap1
6CA9Z/kXm0B/qBOmYmtQ16eDnrwza0acFuyV+zVNoH3yNOhmaQ8PWfijh4i8fsnN
D0oOla8o/KtY0XEhq3ekrrmdqlxA3b1mv6G0wPrLTOjxukUWyHJjH9Q6N3pfO3X/
WyUq0kYP7k3SyHqtzVdecf/eRBf/GbwojcaSKW6LozKQGPLTVxleetkswSkITBkp
AAFR1scqCPtHnTLpl22RsUQ87FvIzwPpAeceUmlHTbsg5DCnkVjMXRn17EXT7VKI
lsW2zY0mq+neYypAmOUMpvvluCGCmXpNtChOaWNob2xhcyBXaWxzb24gPG5pd2ls
c29uQG1pY3Jvc29mdC5jb20+iQJRBBMBCAA7FiEEqVU2IEo7tIlxUjEoKpjnfrby
TKgFAmdRghkCGwMFCwkIBwICIgIGFQoJCAsCBBYCAwECHgcCF4AACgkQKpjnfrby
TKhu8Q/9HUDHcAzmrK16KO/NvJ1TR/XwCu//QZCYagnjuK3L7fxxIYQ7BoLIj2Ly
VMohT/EVyiKJmVdm7m1cUVDfg7w/UGbygkQk9xMz28siBcUtI0NsOb+xVTpUOmvz
4DEwQoMWqAhCa9Y8jbMxFswFUpZ4pOK4H/L1VL9J7vJV6+UigZ4F1Y15lZAVDVXd
ZDbkCxqxprrSp8cZRepYx0hwa6SNI2Bgg7RCvYmw4bJNt3YCCFT9QNAa86IKduO2
6OpimvxBYXMIvR3EHhY1QzTDm0TTrJXL2fF0GV9vobEz0p8lpFW6m0Gno7yKoiOl
wt2mS1zTSPiiVjC/N9OsZAu+lYTlgHZq5u5duU/+A2lXqmHnX9BwKO3Nd/yxsrWD
afw87fCTI4ZCHSlndeuE9Q2zuuad93A7B9SWrqBbKCeR0U/Q6V9FxZ8VdIaCbaD5
KmKA7e/s2gh+Rs4bQvIQlJyJdpMDgNrjDwVOxnZdMsRCmEYXCHifdiKB7gEvClP8
Z35uRo1RTZ9mB1KdA1uYCcl0gDWqJ2dLLSjZDmeL/4aggsQa9yrYfIw5xr3sQRdZ
xsnE1rPbfCJHLaP83IbYu8x6DPy1+C5eVNWJASK4Yshtug4dnr5g3vmhZr0ERPzk
4bGZp67CItjbqsvk/FxpJtgBQxiYEb3G4dnlQqYKqEAzTldg+LG5Ag0EZ1GB1QEQ
ALLOQ3QZlIxpW9QxlNcAdA2GWvyEEGJFzrwfZGKWflZf+ObRdOTpkt31TXTJBK0D
PHnuGC4SifYLUZ9rO5QeGF5KtJyE0gNsyi2VaD6GL7XnJQgBFF9E8ZbOmLQDyEVF
WKj8nyVj2mMgvi94pXQJLuY4rnwZAqwjyhEaMvdpCtju2IeDHLnAKbR3VRVzquIq
qdFPjrLDgsTU5nb7uwt7eA4l/YdKolEyIAfM4ZWfaP8C4ziP8Luf+I3CrKUqYOlN
asuwlHaBjSbtJy7qlzBr/EaE5vo0I6B5SKVZN80k+yzAj2F5G5wKmsD+vcO0XFZE
akT5cv0MtphSvb75r4u2RAhzL5I8QYk6SQd5tDoNaaTB68xav7svq3JI3wAqUqNT
zeJLe715mnKWJBOsl0fF5yiNoBzL6qFnteRc5/BlnZ7Z1AncDoyyeMPrwwVLqKos
o7GUsBkYAqFPi5B4kkGa6rQ7u11+FPa5/yeRJOCIe9neI/wwoP0FkKp9d12skjrw
redDnTcKyWMyFgduL+yjU33po7HNZNZEnL1UT8wyteYOIumVsIxXL0YhESs5VJU1
YRAPe46RqUE1N26w26Tl5GYYCCRbb/NXmtahAOV8ADeVAaC9PUSa29ZGQUFNO3F5
0pAxz/FGax+iiquK8N5DMEj+rAgmcSMTDjh4gqhGTJOnABEBAAGJAjYEGAEIACAW
IQSpVTYgSju0iXFSMSgqmOd+tvJMqAUCZ1GB1QIbDAAKCRAqmOd+tvJMqIX1D/95
7CDKoNuFAZOppq8fihBDNHxioLEo5//CIms3D/1xD8Sdbebkh+1wvkOs+THPprYR
emL8I/V387Dsbhz8Wh0mmg/NwIkVBJ5lcw7RJCCQlpATjhL25YdxgxV20VTXYrIC
pqDyjGhC5PAFerLZNehbdScsPBqY3MdZAlScck4icoYmowHJGf/yGBrwrepdOP8t
/wgX+GUsxteWV0Jeza2yKeYViC3G8ZT+WevE4OSoR/7jBAQmOXXWDcKMfHXaBqxt
YYKSFXgJDLDa5kKr42h1X8xT45UAGJH1Pm/adFKznCahFWmN22Qr00fKdzcopXi6
dnXhTDrD2XxgK5YkVPpghgKm3khR0ghfwwhR199ysgT1ZLWGBfW961vxqdfEnM6W
luZnqmGU8t9DU9NxpfLNWletLrrf1yHZTHuDnPVz3/fg3m150d/BnWR/5HAo8qVM
p+dIu0XcIqlJ87Wds6XPSDjN1OleObi5SmSQ1qM6DHiV4xtRZgjhqSpG0UmZ0Epm
RsLYt8PAgdphrADQ7OA/1J4cd77eVC6fW2XLE7QdXtXD3a79Kp23R9ng6bxpya/p
FpJ+m5zUdN5DhC71gyzILc4PJkONCl0RyYVoJyZqm0pj9Zya9yYXvz6OKJ910QKP
kk6I/bmeo1Spq0hXV7eU2Ubl79Gm2nDkdOCO56yNF7kCDQRory09ARAAt481vthR
lK+G3e3ZMFfmrQg6i1zh6r7wB4wIL01h93T28u8bt+Y1azGC/BAW6WJJLhjPsObs
Ei85ezeHIP2FThFniQTxTB1qaTMZF/WCGZiyYUAavAOIGnv5u5JoE1LaSLSwJi8e
yEIRbNCEMHnQVQQvflCO2jpX0viHTF3FcLOjdV8qxka/m8l3ZEoAQnUGCDaxURSB
YvnN+/uz2bvsobj0+wV6EuUM4dbDYo8jK74geG2iy0Hs4AS9N3Y70tEOuzYqr+A+
57F6q/k3nMl8I3tktgN5r1mDCy4ZIOeP3YQHU9Alwj0Vn4ZC60tqXttsYmaUlYOR
VlVIB8Fiu6q6a/PxVMVLsSp51UlfjFq4Woa/HFvrAWehyK+JYTcvrlIbh+Tn0yxZ
93L8v5nZtcQAoul8FRPmdITheCZ2MzKm8Ox0Cx1vhZFSmzHeWhFvwOYma49OkFDK
cMjHMcg/LDbt0LirYiNqHGBf6Ll5nsdLomiCfCLU8GqX+r6gyYAAIjZ9e9DxMShL
LGUyw+1hVoAAbeE9Jbj0VvMk0mQQkgh3zPLx8PDCszJJ6tsu3neaW5Dydaa8x9se
tWbTeDHnJl+xXsho1yi37EBXnQdA3A9F/vCmC917ggWut6/gOHj3MpE04lZgbMzG
WNjC3HOCJ0eNjqDIOOxZ67+JvgMURxTSQYcAEQEAAYkEbAQYAQgAIBYhBKlVNiBK
O7SJcVIxKCqY53628kyoBQJory09AhsCAkAJECqY53628kyowXQgBBkBCAAdFiEE
vqW9QE7nI0JhMDIaoZuda4tlldQFAmivLT0ACgkQoZuda4tlldQ3DRAAhgd04KtX
qyq9FmcDuYWCXD6o3i1NLFI6alv/WctNv2mJbfyxBDQQkZ4M/BiZMRKXH/GFvDas
4OyAPpStlnBORmiQFCroKb2a07zMYYBkwBQ+3i5FkO6ZdHucSONXtTzoK5mNBHGh
08oM4GizJOaOrllfgkJiJe0530U+XjPzrS+5WLjGrdkT4aE5Ft1Yx4wdCQ9bbNNz
j+y+l1HVTct8c7UgYTSUO7jGeRyUkAxdHOAMUrNNQdZXFewfY+Icwyg9Hoor6RYe
aa/PTYWwpE4tM5JNIbmV1WA1NJZuF5r3gdxzYg8EMPydYACtfnYO1o1xgdXY3hiJ
26pOlNu7i1fQL9j8ngKtzxOFqHQ+ahfZXAPQI/lxv+KhpnXxIZXmChO4H+vmYdqp
USg8gydEuWPpV3xoruhB4eHZhTebhTIt6rkBZ/mlE6mVkO96gzzJi55+Nu782mnh
xvdrcnduVtaItlxTQCQcSM6u5R1bd3oQ3JpE+MBBWNK6zYZijHAN0RFTLVem98ub
lG2E5XXaK4EAKncoRftlf79SNcPtRLBDc3iVtNf53gOrsRmSF+z7epuDPQV2z7DJ
XkOEk+S+3gmGD0I5cTD2VZ840fDXLXfOBTSKDMLN5KYD3Lg7M/odZuHpdqNPdRzn
6VtMW6umcFBVQMPJgrlrY6ytPm2RGHWSDzuceg/+O95/WZ0b+yV+69MISYwH+uen
n6/8Y2xP5OF4n/gAYJXc0/+7lZYHpxK/kmAKe7eVB8I/j+TibHASPIPB/2WjTlv4
Lc+LWtAmeCNA+TKplvKbPkgsli8gT91YffpKR8ZLRN91leqgwBRXC2erDnRmFX+U
hXXQSq+s2mO1qNh/cKaIvB4MphC6lCIoALZVV0og9+QxIlGbpKvm++fnj2MnjNMX
3ZHDXTv0YYUPYNE+ixOisjLw/hwDoH5ubHyCoDhCJPE0LEoKziMlK+u/9A0fZS6y
lV0BA6DLe+4yi0zkMBKASiUvW+4BSufmb+lquxmW90DtmxZu3/emSBXceqKTS0fY
omRElb3Yl9W58Z51ar6tsGjJmKywcuy+w3Of/u13qHqjwytPUZ38Ks+1uhUFBd39
awYTnbJxkWUP4OtIp2JU1aDYPtHB6Pey/lttLdcRFyJV4Dk6YWvw0m9UT/6Vx3X8
32xjsXq7QuMKoaxzYEL3bGCcd/saBXnOvdulcmstekVtJZJMIZ1xxBv79mzaN5S7
eIgNWibpGu39c35BbRwKC03na+urd9qgHhLVqwbcvgba2F/NIjaJ+3fQlOPN9Qh+
dXXPPfjYaceUKp3+B5yfH3c9i4AAN6QorZGCeSl94V8/aL2zcvKQVeK4fmAP62i3
DuUAPJF86Ku7slL75+m5Ag0EZ1NgGAEQANYh/4CjFw139Z10TyCkleY/GFYrLKNE
qjCjC6K2MJWwJIr6ItD5815t4O7Neq2XPU9dSBCjeJX9OJYJTepcjYLuRvAxUwtJ
TB5SIDvkIRJrHCVLyOu0PnnaavSJR0/IuRJzy5gO8akg1dXhWBb4YuI7VM7F5LHb
lhOCt7Ywbmc5++EP6qIJnYTlGQ+IxTnmYCqXZqpmT4vJ4hvL4FJy+Z01N3+qAj4E
tqUDOGTr0ENOOt511ltfisH+9coHLyJGZ/iBMxnAZ6xtigtjea/gUXz5V1l6/9GB
WmoIGxKJZrViPxiVlVDFFOz11en4F1yivsDGZgRB/RTMCrCKFYNyIhtpLoGdAHg1
g+9J75D3R8k5oMGO96v0zhU/Sx6I7zhYVZBn13RTAudMgIgDLwDNB7ETlpCx3cGK
19ISfcTXlYTtZbAJh7PbVGjtuqQrDT2MjcPXFZWN2gPyp1MoDLhUc7WGMLb0FFmI
GvJWaNC22fSi9cYfMKO7Km2MCcCSdx7D8YFXY/vZsvzALK+exmu/yQ6RZQE6JnRV
c2ISlILlvSuYUv60vQ04ZifrflZtRn8JTRdfSyamRYWjbdNodDYNbmMwZJAxAT5f
dyMvHXTdoFHwt+TVzSrsDeoZ2YzbDE0PkCB7WTb4aCH1p+d1bd+JEg0jk+mJ8qTR
FDtQxpC3tQU5ABEBAAGJBGwEGAEIACAWIQSpVTYgSju0iXFSMSgqmOd+tvJMqAUC
Z1NgGAIbAgJACRAqmOd+tvJMqMF0IAQZAQgAHRYhBLrPcfEEBNV2HAnTkgId5Av7
Y7QGBQJnU2AYAAoJEAId5Av7Y7QGnF8QAJzoiDH/k2uuH8NRNjBYeaXeA+zGZMG2
UMu6sq2zkf3mnPMcCPs1Zewkr/s0NGtyn5vW/VNGGJVzf+GkgCiACZZlzEjyv5ph
5TWYpVscIZFrMp7CaPmpwH91fUk3E5VHWDHs+RfLZgEs4IDhahK69fu1KCht8/9J
+2JrFSlAZGWEEwFXI5jlp1lnGSkg0gH5QzxWKMXmpajI9w5YF6gz0GiSx07yG41n
3IB2qF4mD2VmS2Yq9fHMFm/yBHRDTwn66o1rKvN9AC2c0qDOkbPXOHfhjxSSDIm1
HAwLIGf5vdlyxZNnhbtrO5bhq5PMqJi/42gi90K54lLYBpvDglZLO1s7StKYfi4Y
tURGPcXKBZPcSaPvCzSZmDF40UfzPXXxaIK+FG2aK7Wr/dqmk6BxBjoUN4fucQc1
oS+4KdzZMgpwQjBij+x3Ik7CJP95OuOL/aUKqcwKJkcArpDhiseORyUK+nMgARSH
RO8t7UQcIEyUxD4r7lIwwxf8CjXuzYWRClKOOtaIuHYy/AE39GBjaheX64iHGOyK
624K0W1XFdRwWm+wzDpjSAe/wd/CNyU/98ZBIBZvD/D1WwT5CNswz+kGnsN6zDPQ
nffYzPe6WhglvY5By7jiKdSQKyg19q1BXCZW7kp6WRsqU/GZIiDFtetCbuT1ApDj
Zyxp8zKDgDuFrBoP/2dixZmn+JkVJavudIn9OWX+ofEOQ4MuV0eKZzp1WSVyAerG
y3SSwJ7LqJOmYnYiAO6RaQNhI2BjC6jNGUQVxps8zM0Nwoy+pnNR2mSmKpuSUlxd
EOkYw8iJGsMaMWVFKv2Tobmgbrie+WLY/bQ+2QUigaH8fqF//e8phkKJhUh/u6OH
Z7vz5BPFPRbxV5S+5mIaOB56iZ3y3cQm25bjHm/mmoJ2i+Vz+4oGSqqInygR0aLP
P7ulxz9M+zFZM7ab2seipivfpKMIzqQQNdVRG1CMlVb4NEkNv60QSppoMvfNtBV2
AmXZpq+g6NO8gSLO3hIxxfBNeExR5UXl77yiXmDG+C1XIXJ8F782eOWthYlaVPym
E5JDyZQyikaSC/8uWes1+LnvyrmPjcs8kBVD6gBH2/mHLusDyMerEaSa7B2HwDh/
D5SLqeD76mMgz8865CzVrrvVXwyzPJXBz3O2tuiA4n6kjqmsagRfVZx+nvHlkBIZ
6vRzq9e5AzMZnl9EeJ1+egMqqzmm7TLxJZ8sP4TBkBm05pvq4nNgXe/X3gbxkGQI
Se7ISH1hHbUq4FXpPbLwRT1V0iJJPdA7n1izeb3Rfu7riCs6FPrD2j7xTQ0dc6rg
WWhBhUKLMxNbtvPjggLYiXp0ZooU56afsFcXlvFDcJmcYOjmVEBeqGIqRTcl
=Mxta
-----END PGP PUBLIC KEY BLOCK-----
